X:1
T:Ave, Regina coelorum - Aichinger
T:#
%%score [ 1 2 3 4 ]
L:1/8
Q:1/4=180
M:none
K:F
V:1 treble nm="Soprano" snm="S"
V:2 treble nm="Alto" snm="A"
V:3 treble-8 nm="Tenor" snm="T"
V:4 bass nm="Bass" snm="B"
V:1
"^Ave Regina coelorum" z16 | z16 | z16 | (F6 G2 A2 G2 A2 B2 | %4
w: |||A\- * * * * *|
 c2 A2 B2 c2 B2 A2"^Gregor Aichinger\n(1561-1628)" A2 GF) |[M:4/2] G8 F8 | z4 c4 c8 | B4 G4 F8 | %8
w: |* ve|Re- gi-|na coe- lo-|
 c8 z4 c4 | c8 d4 e4 | f8 e8 | d8 B8 | _e6 e2 d4 d4- | d4 B4 c6 c2 |[Q:1/4=175] d8[Q:1/4=168] c8- | %15
w: rum: Re-|gi- na coe-|lo- rum:|A- ve|Do- mi- na, a\-|* ve Do- mi-|na an\-|
[Q:1/4=162] c4[Q:1/4=158] c4[Q:1/4=153] c8 |[Q:1/4=150] !fermata!c16 || %17
w: * ge- lo-|rum:|
[M:3/1][Q:1/4=540][Q:1/4=540][Q:1/4=540][Q:1/4=540] A16 A8 | A16 A8 | F16 G8 | A16 A8 | A16 A8 | %22
w: Sal- ve|ra- dix,|sal- ve|por- ta|ex qua|
 A16 c8 | =B16 B8 |[Q:1/4=180] c8 c8 |[M:3/1][Q:1/4=540] c16 c8 | B16 B8 |[Q:1/4=180] A8 A8 | %28
w: mun- do|lux est|or- ta.|Gau- de|glo- ri-|o- sa,|
[M:3/1][Q:1/4=540] A16 B8 |[M:3/1][Q:1/4=640][Q:1/4=540][Q:1/4=640][Q:1/4=640][Q:1/4=640] c16 A8 | %30
w: su- per|om- nes|
 d24 | B8 A16 ||[Q:1/4=180] =B8 c8 | c4 c4 d8 | c4 A4 B8 | %35
w: spe-|ci- o-|sa. Va-|le o val-|de de- co-|
[M:4/2][Q:1/4=180][Q:1/4=180][Q:1/4=180][Q:1/4=180] A8 z8 | z8 f8- | f4 e4 d8 | c8 B8 | A8 G4 F4- | %40
w: ra|et|* pro no-|bis Chris-|tum ex- o\-|
 (F2 ED E4) F8 | z4 c4 c4 c4 | d8 c4 A4 | B8 A8 | z16 | f12 e4 | d8 c8 | %47
w: * * * * ra.|Va- le o|val- de de-|co- ra||et pro|no- bis|
[Q:1/4=175] B8[Q:1/4=168] A8 | %48
w: Chris- tum|
[Q:1/4=162] G4[Q:1/4=157] (F6[Q:1/4=154] E[Q:1/4=153]D[Q:1/4=151] E4) |[Q:1/4=150] !fermata!F16 |] %50
w: ex- o\- * * *|ra.|
V:2
 z4 (F6 E2 F2 D2 | E2 C2 D6 C2 F4- | F2 ED E4) F8 | z16 | z16 |[M:4/2] z8 z4 A4 | A8 (G2 F2 G2 A2 | %7
w: A\- * * *||* * * * ve|||Re-|gi- na * * *|
 B4) c4 (A2 G2 A2 F2 | G8) F4 G4 | (G2 F2 G2 A2 B8) | c4 c4 c8 | A4 B8 G4 | c6 c2 A4 A4- | %13
w: * coe- lo\- * * *|* rum: Re-|gi\- * * * *|na coe- lo-|rum: A- ve|Do- mi- na, a\-|
 A4 D4 G4 A4 | B4 B4 A4 (F2 E2 | F2 G2 A8 G2 F2 | G8) !fermata!A8 ||[M:3/1] F16 F8 | E16 E8 | %19
w: * ve Do- mi-|na an- ge- lo\- *||* rum:|Sal- ve|ra- dix,|
 D16 E8 | F16 F8 | F16 F8 | E16 F8 | G16 G8 | G12 G4 |[M:3/1] A16 A8 | G16 G8 | E8 ^F8 | %28
w: sal- ve|por- ta|ex qua|mun- do|lux est|or- ta.|Gau- de|glo- ri-|o- sa,|
[M:3/1] A16 D8 |[M:3/1] G16 C8 | F24 | G8 ^F16 || G8 G8 | A4 A4 F4 G4 | A8 G8 |[M:4/2] C4 c8 c4 | %36
w: su- per|om- nes|spe-|ci- o-|sa. Va-|le o val- de|de- co-|ra et pro|
 (d2 c2 c6 =BA B4) | c8 (F6 G2 | A4) A4 G4 D4 | F8 E4 F4 | G8 A8 | G8 A4 A4 | F4 G4 A8 | %43
w: no\- * * * * *|bis, et *|* pro no- bis|Chris- tum ex-|o- ra.|Va- le o|val- de de-|
 G8 C4 c4- | c4 c4 (d2 c2 c4-) | (c2 =BA B4) c8 | (F6 G2 A4) A4 | G4 D4 F8 | E4 A4 G8 | %49
w: co- ra et|* pro no\- * *|* * * * bis|et * * pro|no- bis Chris-|tum ex- o-|
 !fermata!C16 |] %50
w: ra.|
V:3
 z16 | z16 | z16 | z4 (f6 e2 f2 d2 | e2 c2 d6 c2 f4-) |[M:4/2][K:treble-8] (f2 ed e4) f8 | %6
w: |||A\- * * *||* * * * ve|
 z4 f4 e8 | d4 c4 (d2 e2 f2 d2 | e8) f4 e4 | e8 f4 g4 | a8 g8 | f8 g8 | g6 g2 ^f4 f4- | %13
w: Re- gi-|na coe- lo\- * * *|* rum: Re-|gi- na coe-|lo- rum:|A- ve|Do- mi- na, a\-|
 f4 g4 _e6 e2 | d4 g4 e4 (a4- | a2 g2 f8 e2 d2 | e8) !fermata!f8 ||[M:3/1][K:treble-8] c16 c8 | %18
w: * ve Do- mi-|na an- ge- lo\-||* rum:|Sal- ve|
 c16 c8 | B8 A8 c8 | c16 c8 | c16 c8 | c16 c8 | d16 d8 | e12 e4 |[M:3/1] f16 f8 | d16 d8 | ^c8 d8 | %28
w: ra- dix,|sal- * ve|por- ta|ex qua|mun- do|lux est|or- ta.|Gau- de|glo- ri-|o- sa,|
[M:3/1] f16 f8 |[M:3/1][K:treble-8] e16 e8 | d24 | d8 d16 || d4 g4 e4 e4 | f8 d8 | e4 (f6 ed e4) | %35
w: su- per|om- nes|spe-|ci- o-|sa. Va- le o|val- de|de- co\- * * *|
[M:4/2][K:treble-8] f8 a8- | a4 g4 f8 | g8 z4 d4 | e4 f4 d8 | d4 c4 c8- | c8 c4 f4 | e4 e4 f8 | %42
w: ra et|* pro no-|bis Chris-|tum ex- o-|ra, ex- o\-|* ra. Va-|le o val-|
 d8 e4 (f4- | f2 ed e4) f8 | a12 g4 | f8 g8 | z4 d4 e4 f4 | d8 d4 c4 | c16 | !fermata!A16 |] %50
w: de de- co\-|* * * * ra|et pro|no- bis|Chris- tum ex-|o- ra, ex-|o-|ra.|
V:4
 (F,6 G,2 A,2 G,2 A,2 B,2 | C2 A,2 B,2 C2 B,2 A,2 A,2 G,F, | G,8) F,8 | z16 | z16 | %5
w: A\- * * * * *||* ve|||
[M:4/2] z8 z4 F,4 | (F,2 G,2 A,2 B,2 C8) | D4 E4 F8 | C8 z4 C4 | C8 B,4 G,4 | F,8 C8 | D8 _E8 | %12
w: Re-|gi\- * * * *|na coe- lo-|rum: Re-|gi- na coe-|lo- rum:|A- ve|
 C6 C2 D4 D,4- | D,4 G,4 C,6 C,2 | G,8 A,8 | F,8 (C8 | C,8) !fermata!F,8 ||[M:3/1] F,16 F,8 | %18
w: Do- mi- na, a\-|* ve Do- mi-|na an-|ge- lo\-|* rum:|Sal- ve|
 A,16 A,8 | D,16 C,8 | F,16 F,8 | F,16 F,8 | A,16 A,8 | G,16 G,8 | C12 C4 |[M:3/1] F,16 F,8 | %26
w: ra- dix,|sal- ve|por- ta|ex qua|mun- do|lux est|or- ta.|Gau- de|
 G,16 G,8 | A,8 D,8 |[M:3/1] D16 D8 |[M:3/1] C16 C8 | B,24 | G,8 D,16 || G,8 C8 | A,4 A,4 B,8 | %34
w: glo- ri-|o- sa,|su- per|om- nes|spe-|ci- o-|sa. Va-|le o val-|
 A,4 F,4 G,8 |[M:4/2] F,8 F8- | F4 E4 D8 | C8 B,8 | A,4 F,4 G,8 | D,4 F,4 C,8- | C,8 F,8 | %41
w: de de- co-|ra et|* pro no-|bis Chris-|tum ex- o-|ra, ex- o\-|* ra.|
 C8 A,4 A,4 | B,8 A,4 F,4 | G,8 F,8 | F12 E4 | D8 C8 | B,8 A,4 F,4 | G,8 D,4 F,4 | C,16 | %49
w: Va- le o|val- de de-|co- ra|et pro|no- bis|Chris- tum ex-|o- ra, ex-|o-|
 !fermata!F,16 |] %50
w: ra.|

